app/dist/common/images/medipal.svg

<svg height="18" viewBox="0 0 18 18" width="18" xmlns="http://www.w3.org/2000/svg"><path d="m0 0h18v18h-18z" fill="#f0f3fa"/><path d="m6.89 5.64.11-.64c-.82.06-1.45.23-1.66.3-.1.2-.31.61-.34.7.6-.14 1.5-.3 1.89-.36zm-.38 5.91-3.51.45 1-2.55c.52-.2 2.22-.38 3-.45zm-1.51-4.55-2.16.67-.84 1.33 2.34-.7zm6.11-1.36-.11-.64c.82.06 1.45.23 1.66.3.1.2.31.61.34.7-.6-.14-1.5-.3-1.89-.36zm.38 5.91 3.51.45-1-2.55c-.52-.2-2.22-.38-3-.45zm1.51-4.55 2.16.67.84 1.33-2.34-.7zm-5.73-1h3.46c.09.55.27 1.73.27 2-.67-.08-1.33-.07-2-.09-.67.02-1.33 0-2 .09 0-.27.18-1.45.27-2z" fill="#d71519"/></svg>

<!-- by TradingView --><svg width="18" height="18" viewBox="0 0 18 18" xmlns="http://www.w3.org/2000/svg"><path fill="#F0F3FA" d="M0 0h18v18H0z"/><path d="M6.89 5.64 7 5c-.82.06-1.45.23-1.66.3-.1.2-.31.61-.34.7.6-.14 1.5-.3 1.89-.36ZM6.51 11.55 3 12l1-2.55c.52-.2 2.22-.38 3-.45l-.49 2.55ZM5 7l-2.16.67L2 9l2.34-.7L5 7ZM11.11 5.64 11 5c.82.06 1.45.23 1.66.3.1.2.31.61.34.7-.6-.14-1.5-.3-1.89-.36ZM11.49 11.55 15 12l-1-2.55c-.52-.2-2.22-.38-3-.45l.49 2.55ZM13 7l2.16.67L16 9l-2.34-.7L13 7ZM7.27 6h3.46c.09.55.27 1.73.27 2-.67-.08-1.33-.07-2-.09-.67.02-1.33 0-2 .09 0-.27.18-1.45.27-2Z" fill="#D71519"/></svg>
